X:2675
T:Polonäs efter Pehr Andersson
S:efter Pehr Andersson
B:Pehr Anderssons notbok, nr 68
B:http://www.smus.se/earkiv/fmk/browselarge.php?lang=sw&katalogid=Ma+1&bildnr=00024
O:Måstorp, Närke
R:Slängpolska
M:3/4
L:1/16
K:D
DEFG (A2dA) (GFE)D | A2d2 (cd)(ef) dcBA | B2g2 A2f2 G2f2 | efed cdcB ABAG |
F2d2 E2d2 cdef | dcBc d4 D4 :: fefg f2a2 e2d2 | cBcd e2(ae) dcBA |
ABcd efge a2A2 | ^GABG A4 A,4 | DEFG A2d2 c2d2 | DEFG A2d2 c2d2 |
defd efge f2ga | A2Bc d4 D4 :|
(:musicend:)
(:music:)
